X:112
T:Sir Charles's Rant. JJo8.112
B:J.Johnson Choice Collection Vol 8 1758
Z:vmp.Simon Wilson 2013 www.village-music-project.org.uk
M:6/8
L:1/8
Q:3/8=120
K:G
|:G2G dBG|ecA dBG|G2G dBG|c3e3|
G2G dBG|ecA dBG|B/c/dB A/B/cA|G3G3:|
|:(e/f/)ge dBG|(e/f/)ged2G|(e/f/)ge dBG|A3d3|
(e/f/)ge dBG|(c/d/)ecA2c|(B/c/)dB (A/B/)cA|G3G3:|
